X:1
T: The Kirrie Kebbuck
C:J. Scott Skinner
R:Strathspey
Q: 128
K:D
M:4/4
L:1/16
|:B2|AF3 F3A BG3 G3B|cA3 e3c ((3d2f2e2) ((3d2c2B2) |AF3 F3A BG3 G3B|cA3 g3c d4-d3B|
AF3 F3A BG3 G3B|cA3 e3c ((3d2f2e2) ((3d2c2B2) |AF3 F3A BG3 G3B|((3A2g2f2) ((3e2d2c2) d4 D2g2|
f3g a3f da3 f3d|g3a b3g eb3 g3e|f3g a3f da3 f3d|((3A2g2f2) ((3e2d2c2) d4-d3g|
f3g a3f ((3d2a2g2) ((3f2e2d2) |g3a b3g ((3e2b2a2) ((3g2f2e2) |fed2 edc2 dcB2 A3G|F3D E3C D6:|
